img/certif/USDA.svg

<?xml version="1.0" encoding="UTF-8" standalone="no"?>
<!-- Created with Inkscape (http://www.inkscape.org/) -->
<svg
   xmlns:dc="http://purl.org/dc/elements/1.1/"
   xmlns:cc="http://web.resource.org/cc/"
   xmlns:rdf="http://www.w3.org/1999/02/22-rdf-syntax-ns#"
   xmlns:svg="http://www.w3.org/2000/svg"
   xmlns="http://www.w3.org/2000/svg"
   xmlns:xlink="http://www.w3.org/1999/xlink"
   xmlns:sodipodi="http://inkscape.sourceforge.net/DTD/sodipodi-0.dtd"
   xmlns:inkscape="http://www.inkscape.org/namespaces/inkscape"
   id="svg2"
   sodipodi:version="0.32"
   inkscape:version="0.43"
   width="500"
   height="500"
   sodipodi:docbase="D:\wiki_svg"
   sodipodi:docname="USDA_organic_seal.jpg.svg"
   version="1.0">
  <metadata
     id="metadata7">
    <rdf:RDF>
      <cc:Work
         rdf:about="">
        <dc:format>image/svg+xml</dc:format>
        <dc:type
           rdf:resource="http://purl.org/dc/dcmitype/StillImage" />
      </cc:Work>
    </rdf:RDF>
  </metadata>
  <defs
     id="defs5">
    <linearGradient
       id="linearGradient2237">
      <stop
         style="stop-color:#ffffff;stop-opacity:0.33725491;"
         offset="0"
         id="stop2239" />
      <stop
         style="stop-color:#ffffff;stop-opacity:0.10309278;"
         offset="1"
         id="stop2241" />
    </linearGradient>
    <linearGradient
       id="linearGradient2228">
      <stop
         style="stop-color:#ffffff;stop-opacity:1;"
         offset="0"
         id="stop2230" />
      <stop
         style="stop-color:#ffffff;stop-opacity:0;"
         offset="1"
         id="stop2232" />
    </linearGradient>
    <linearGradient
       inkscape:collect="always"
       xlink:href="#linearGradient2237"
       id="linearGradient2243"
       x1="341"
       y1="396.6875"
       x2="444"
       y2="264.5"
       gradientUnits="userSpaceOnUse" />
    <linearGradient
       inkscape:collect="always"
       xlink:href="#linearGradient2237"
       id="linearGradient2260"
       gradientUnits="userSpaceOnUse"
       x1="364.69299"
       y1="367.85699"
       x2="474.21738"
       y2="228.33549"
       gradientTransform="matrix(0.965245,0.261348,-0.261348,0.965245,39.37726,-86.06294)" />
    <linearGradient
       inkscape:collect="always"
       xlink:href="#linearGradient2237"
       id="linearGradient2264"
       gradientUnits="userSpaceOnUse"
       x1="398.47485"
       y1="327.77911"
       x2="503.34088"
       y2="202.03365"
       gradientTransform="matrix(0.88577,0.464125,-0.464125,0.88577,75.60455,-152.2944)" />
    <linearGradient
       inkscape:collect="always"
       xlink:href="#linearGradient2237"
       id="linearGradient2268"
       gradientUnits="userSpaceOnUse"
       x1="416.69516"
       y1="301.33398"
       x2="519.45551"
       y2="188.67067"
       gradientTransform="matrix(0.773106,0.634277,-0.634277,0.773106,144.3038,-217.9591)" />
  </defs>
  <sodipodi:namedview
     inkscape:window-height="749"
     inkscape:window-width="756"
     inkscape:pageshadow="2"
     inkscape:pageopacity="0.0"
     borderopacity="1.0"
     bordercolor="#666666"
     pagecolor="#ffffff"
     id="base"
     inkscape:zoom="0.5"
     inkscape:cx="189.04225"
     inkscape:cy="398.10824"
     inkscape:window-x="25"
     inkscape:window-y="13"
     inkscape:current-layer="svg2" />
  <g
     id="g2395">
    <g
       id="g2359">
      <path
         sodipodi:type="arc"
         style="fill:#723904;fill-opacity:1;fill-rule:evenodd;stroke:none;stroke-width:0.40000001;stroke-linecap:butt;stroke-linejoin:round;stroke-miterlimit:4;stroke-dasharray:none;stroke-dashoffset:10.5;stroke-opacity:1"
         id="path2251"
         sodipodi:cx="29"
         sodipodi:cy="110"
         sodipodi:rx="53"
         sodipodi:ry="50"
         d="M 82 110 A 53 50 0 1 1  -24,110 A 53 50 0 1 1  82 110 z"
         transform="matrix(4.716981,0,0,5,113.2075,-300)" />
      <g
         id="g2349">
        <path
           transform="matrix(4.207547,0,0,4.46,127.9811,-240.6)"
           d="M 82 110 A 53 50 0 1 1  -24,110 A 53 50 0 1 1  82 110 z"
           sodipodi:ry="50"
           sodipodi:rx="53"
           sodipodi:cy="110"
           sodipodi:cx="29"
           id="path2270"
           style="fill:#ffffff;fill-opacity:1;fill-rule:evenodd;stroke:none;stroke-width:3.23181222;stroke-linecap:butt;stroke-linejoin:round;stroke-miterlimit:4;stroke-dasharray:none;stroke-dashoffset:10.5;stroke-opacity:1"
           sodipodi:type="arc" />
        <g
           id="g2293">
          <path
             transform="matrix(4.207547,0,0,4.46,127.9811,-240.6)"
             style="fill:#008356;fill-opacity:1;fill-rule:evenodd;stroke:none;stroke-width:3.23181222;stroke-linecap:butt;stroke-linejoin:round;stroke-miterlimit:4;stroke-dashoffset:10.5;stroke-opacity:1;stroke-dasharray:none"
             d="M 82,110 C 82,137.6 58.256,160 29,160 C -0.256,160 -24,137.6 -24,110 C 0.71750032,110 54.840784,110 82,110 z "
             id="path2255"
             sodipodi:nodetypes="cscc" />
          <g
             id="g2287">
            <path
               sodipodi:nodetypes="ccc"
               id="path2226"
               d="M 286,470.875 L 444,264.5 L 270,471"
               style="fill:url(#linearGradient2243);fill-opacity:1;fill-rule:evenodd;stroke:none;stroke-width:1px;stroke-linecap:butt;stroke-linejoin:miter;stroke-opacity:1" />
            <path
               style="fill:url(#linearGradient2260);fill-opacity:1;fill-rule:evenodd;stroke:none;stroke-width:1px;stroke-linecap:butt;stroke-linejoin:miter;stroke-opacity:1"
               d="M 176.12796,455.3694 L 437.43819,258.27252 L 165.07512,448.36222"
               id="use2245"
               sodipodi:nodetypes="ccc" />
            <path
               style="fill:url(#linearGradient2264);fill-opacity:1;fill-rule:evenodd;stroke:none;stroke-width:1px;stroke-linecap:butt;stroke-linejoin:miter;stroke-opacity:1"
               d="M 91.891786,405.90306 L 427.67993,260.27402 L 82.618145,396.66913"
               id="use2247"
               sodipodi:nodetypes="ccc" />
            <path
               style="fill:url(#linearGradient2268);fill-opacity:1;fill-rule:evenodd;stroke:none;stroke-width:1px;stroke-linecap:butt;stroke-linejoin:miter;stroke-opacity:1"
               d="M 46.934677,331.92164 L 426.22851,257.38201 L 39.728675,320.99739"
               id="use2249"
               sodipodi:nodetypes="ccc" />
          </g>
        </g>
      </g>
      <path
         transform="matrix(4.207547,0,0,4.46,127.9811,-240.6)"
         d="M 82 110 A 53 50 0 1 1  -24,110 A 53 50 0 1 1  82 110 z"
         sodipodi:ry="50"
         sodipodi:rx="53"
         sodipodi:cy="110"
         sodipodi:cx="29"
         id="path2253"
         style="fill:none;fill-opacity:1;fill-rule:evenodd;stroke:#ffffff;stroke-width:3.23181222;stroke-linecap:butt;stroke-linejoin:round;stroke-miterlimit:4;stroke-dasharray:none;stroke-dashoffset:10.5;stroke-opacity:1"
         sodipodi:type="arc" />
    </g>
    <g
       id="g2380">
      <g
         id="g2272">
        <path
           sodipodi:nodetypes="ccczcccczcc"
           id="path1308"
           d="M 121,129 L 143.5,129 L 143.5,200.86001 C 143.5,200.86001 143.5625,207.70382 150.375,207.70382 C 157.1875,207.70382 158.1875,200.92223 158.1875,200.92223 L 158.1875,129.06222 L 180.125,129.06222 L 180.125,200.98445 C 180.125,200.98445 180.20121,225 150.8125,225 C 121.60051,225 121.03125,201.01555 121.03125,201.01555 L 121,129 z "
           style="fill:#008356;fill-opacity:1;fill-rule:evenodd;stroke:none;stroke-width:1px;stroke-linecap:butt;stroke-linejoin:round;stroke-opacity:1" />
        <path
           sodipodi:nodetypes="ccsssssssccssssssc"
           id="path2183"
           d="M 223.62252,158.76344 L 243.95184,158.76344 C 243.95184,158.76344 245.71961,129 215.84435,129 C 207.71536,129 199.62974,132.51816 195.36384,137.15895 C 190.73588,142.19363 188.44396,147.21225 188.44396,155.83871 C 188.44396,162.60331 189.1587,172.84813 206.65196,182.67742 C 217.3641,188.69647 223.62252,193.17204 223.62252,199.53764 C 223.62252,205.90323 220.08699,208.13978 215.13724,208.13978 C 208.50444,208.13978 207.66842,201.064 207.66842,200.22581 C 207.66842,199.27957 207.53584,192.31183 207.53584,192.31183 L 186.49941,192.31183 C 186.49941,192.31183 182.61033,225 214.60691,225 C 245.7442,225 243.95184,201.08602 243.95184,196.09677 C 243.95184,180.09585 236.16577,174.83033 223.7993,167.88173 C 213.65113,162.17957 208.5965,158.76344 208.5965,153.08602 C 208.5965,147.4086 212.43628,145.86022 215.49079,145.86022 C 223.77073,145.86022 223.67876,153.6059 223.67876,154.41936 C 223.67876,155.13865 223.7993,158.93549 223.62252,158.76344 z "
           style="fill:#008356;fill-opacity:1;fill-rule:evenodd;stroke:none;stroke-width:1px;stroke-linecap:butt;stroke-linejoin:round;stroke-opacity:1" />
        <path
           d="M 253.321,129 C 253.321,129 275.77165,129 284.25693,129 C 292.74221,129 310.95021,131.92014 310.95021,149.98859 C 310.95021,172.44486 310.95021,180.1542 310.95021,204.19391 C 310.95021,217.65091 298.88299,225 286.02254,225 C 275.41594,225 253.321,225 253.321,225 L 253.321,129 z M 275.43711,146.61987 C 275.43711,146.61987 280.65608,146.61987 282.6286,146.61987 C 286.61879,146.61987 288.83383,148.46808 288.83383,159.90393 C 288.83383,174.11691 288.83383,178.99629 288.83383,194.21145 C 288.83383,202.72862 288.53006,207.38 283.03904,207.38 C 280.57339,207.38 275.43711,207.38 275.43711,207.38 L 275.43711,146.61987 z "
           style="fill:#008356;fill-opacity:1;fill-rule:evenodd;stroke:none;stroke-width:1px;stroke-linecap:butt;stroke-linejoin:round;stroke-opacity:1"
           id="path2185" />
        <path
           d="M 339.5,225 L 318.125,225 L 338.375,129 L 364.125,129 L 384.875,224.73984 L 362.25,224.73984 L 359.625,207.17886 L 343,207.17886 L 339.5,225 z M 345.375,190.13821 L 357.125,190.13821 L 351.625,146.82114 L 345.375,190.13821 z "
           style="fill:#008356;fill-opacity:1;fill-rule:evenodd;stroke:none;stroke-width:1px;stroke-linecap:butt;stroke-linejoin:round;stroke-opacity:1"
           id="path2192" />
      </g>
      <g
         id="g2278">
        <path
           d="M 254.90453,349.12109 L 238.85071,349.12109 L 254.0596,277.12109 L 273.39928,277.12109 L 288.98369,348.92597 L 271.99106,348.92597 L 270.01953,335.75524 L 257.53323,335.75524 L 254.90453,349.12109 z M 259.31699,322.97475 L 268.14188,322.97475 L 264.01108,290.48694 L 259.31699,322.97475 z "
           style="fill:#ffffff;fill-opacity:1;fill-rule:evenodd;stroke:none;stroke-width:1px;stroke-linecap:butt;stroke-linejoin:round;stroke-opacity:1"
           id="path2199" />
        <path
           d="M 104.02528,277.12109 L 112.52618,277.12109 C 122.46219,277.12109 130.46121,285.00959 130.46121,294.80831 L 130.46121,331.43389 C 130.46121,341.2326 122.46219,349.12109 112.52618,349.12109 L 104.02528,349.12109 C 94.089271,349.12109 86.090248,341.2326 86.090248,331.43389 L 86.090248,294.80831 C 86.090248,285.00959 94.089271,277.12109 104.02528,277.12109 z M 108.27573,289.15011 C 111.40962,289.15011 113.93257,291.75482 113.93257,294.99029 L 113.93257,331.25191 C 113.93257,334.48737 111.40962,337.09209 108.27573,337.09209 C 105.14183,337.09209 102.61888,334.48737 102.61888,331.25191 L 102.61888,294.99029 C 102.61888,291.75482 105.14183,289.15011 108.27573,289.15011 z "
           style="fill:#ffffff;fill-opacity:1;fill-rule:evenodd;stroke:none;stroke-width:0.40000001;stroke-linecap:butt;stroke-linejoin:round;stroke-miterlimit:4;stroke-dasharray:none;stroke-dashoffset:10.5;stroke-opacity:1"
           id="rect2201" />
        <path
           d="M 154.85639,320.71908 L 154.85639,349.12109 L 138.0626,349.12109 L 138.0626,277.12109 C 138.0626,277.12109 153.9725,277.12109 164.04877,277.12109 C 174.12505,277.12109 182.43355,281.44558 182.43355,296.65878 C 182.43355,311.85585 174.83215,311.4025 174.83215,313.21155 C 174.83215,315.79379 182.25677,311.15427 182.25677,331.57335 C 182.25677,347.99044 184.73165,346.40752 184.73165,347.71908 C 184.73165,349.03064 184.64326,349.07586 184.64326,349.07586 L 165.63976,349.07586 C 165.63976,349.07586 165.63976,334.46783 165.63976,328.58844 C 165.63976,321.98253 161.7787,320.71908 154.85639,320.71908 z M 154.59122,306.97035 C 154.59122,306.97035 154.59122,293.3375 154.59122,290.07838 C 158.23831,290.07838 165.63976,288.65208 165.63976,298.37738 C 165.63976,307.97214 160.40427,306.97035 154.59122,306.97035 z "
           style="fill:#ffffff;fill-opacity:1;fill-rule:evenodd;stroke:none;stroke-width:1px;stroke-linecap:butt;stroke-linejoin:round;stroke-opacity:1"
           id="path2210" />
        <path
           sodipodi:nodetypes="cccccccsssssccssssssc"
           id="path2217"
           d="M 217.43534,322.29418 L 211.6017,322.29418 L 211.6017,310.35187 L 234.05234,310.35187 L 234.05234,347.90956 L 222.20831,347.90956 L 222.20831,341.67879 C 222.20831,341.67879 219.02633,349.12109 207.35906,349.12109 C 195.6918,349.12109 189.15106,341.15956 189.15106,331.64033 C 189.15106,322.12109 189.15106,302.04417 189.15106,292.8711 C 189.15106,283.69801 199.22734,277.12109 211.42493,277.12109 C 223.62252,277.12109 233.38943,283.8711 233.38943,292.52495 C 233.38943,301.17879 233.34524,302.39033 233.34524,302.39033 L 217.08178,302.39033 C 217.08178,302.39033 217.08178,297.54418 217.08178,294.42879 C 217.08178,291.31341 213.54625,289.0634 211.6017,289.0634 C 209.65716,289.0634 205.50291,290.44803 205.50291,295.03456 C 205.50291,299.62109 205.50291,325.40956 205.50291,329.56341 C 205.50291,333.71725 207.18229,336.65955 211.24815,336.65955 C 215.31402,336.65955 217.61211,333.19801 217.61211,330.08263 C 217.61211,326.96725 217.61211,321.77495 217.43534,322.29418 z "
           style="fill:#ffffff;fill-opacity:1;fill-rule:evenodd;stroke:none;stroke-width:1px;stroke-linecap:butt;stroke-linejoin:round;stroke-opacity:1" />
        <path
           id="path2219"
           d="M 309.00566,312.58645 L 309.00566,348.94287 L 293.44931,348.94287 L 293.44931,277.12109 L 310.77343,277.12109 L 322.97102,316.86367 L 322.97102,277.29931 L 338.3506,277.29931 L 338.3506,349.12109 L 320.49615,349.12109 L 309.00566,312.58645 z "
           style="fill:#ffffff;fill-opacity:1;fill-rule:evenodd;stroke:none;stroke-width:1px;stroke-linecap:butt;stroke-linejoin:miter;stroke-opacity:1" />
        <path
           id="rect2221"
           d="M 346.48233,277.12109 L 362.74579,277.12109 L 362.74579,349.12109 L 346.48233,349.12109 L 346.48233,277.12109 z "
           style="fill:#ffffff;fill-opacity:1;fill-rule:evenodd;stroke:none;stroke-width:0.40000001;stroke-linecap:butt;stroke-linejoin:round;stroke-miterlimit:4;stroke-dashoffset:10.5;stroke-opacity:1" />
        <path
           sodipodi:nodetypes="ccssssssccszsszzc"
           id="path2224"
           d="M 399.16178,302.73647 L 415.42523,302.73647 C 415.42523,302.73647 415.42523,298.40956 415.42523,292.17879 C 415.42523,285.94802 409.41483,277.12109 391.91393,277.12109 C 374.41304,277.12109 371.23106,289.40957 371.23106,294.94802 C 371.23106,300.48647 371.23106,324.02494 371.23106,330.77495 C 371.23106,337.52495 374.23626,349.12109 392.44426,349.12109 C 410.65226,349.12109 416.30912,337.69801 416.30912,333.54417 C 416.30912,329.39033 416.30912,320.90955 416.30912,320.90955 L 399.33856,320.90955 C 399.33856,320.90955 399.33856,328.4908 399.33856,331.46725 C 399.33856,334.17085 396.70763,336.65956 393.6817,336.65956 C 390.75285,336.65956 388.02485,334.92879 388.02485,331.46725 C 388.02485,328.00571 388.02485,298.23649 388.02485,294.94802 C 388.02485,291.65956 389.63233,290.01534 393.6817,290.01534 C 397.18527,290.01534 399.25017,293.1307 399.25017,295.46725 C 399.25017,297.80379 399.33856,302.90956 399.16178,302.73647 z "
           style="fill:#ffffff;fill-opacity:1;fill-rule:evenodd;stroke:none;stroke-width:1px;stroke-linecap:butt;stroke-linejoin:round;stroke-opacity:1" />
      </g>
    </g>
  </g>
</svg>

<svg xmlns="http://www.w3.org/2000/svg" width="500" height="500" xmlns:xlink="http://www.w3.org/1999/xlink" xmlns:sodipodi="http://inkscape.sourceforge.net/DTD/sodipodi-0.dtd" sodipodi:version=".32" sodipodi:docbase="D:\wiki_svg" sodipodi:docname="USDA_organic_seal.jpg.svg" version="1"><defs><linearGradient id="a"><stop offset="0" stop-color="#fff" stop-opacity=".337"/><stop offset="1" stop-color="#fff" stop-opacity=".103"/></linearGradient><linearGradient><stop offset="0" stop-color="#fff"/><stop offset="1" stop-color="#fff" stop-opacity="0"/></linearGradient><linearGradient id="b" x1="341" x2="444" y1="396.688" y2="264.5" xlink:href="#a" gradientUnits="userSpaceOnUse"/><linearGradient id="c" x1="364.693" x2="474.217" y1="367.857" y2="228.335" xlink:href="#a" gradientUnits="userSpaceOnUse" gradientTransform="matrix(.965 .261 -.261 .965 39.377 -86.063)"/><linearGradient id="d" x1="398.475" x2="503.341" y1="327.779" y2="202.034" xlink:href="#a" gradientUnits="userSpaceOnUse" gradientTransform="matrix(.886 .464 -.464 .886 75.605 -152.294)"/><linearGradient id="e" x1="416.695" x2="519.456" y1="301.334" y2="188.671" xlink:href="#a" gradientUnits="userSpaceOnUse" gradientTransform="matrix(.773 .634 -.634 .773 144.304 -217.959)"/></defs><sodipodi:namedview borderopacity="1" bordercolor="#666666" pagecolor="#ffffff"/><g><g><path fill="#723904" fill-rule="evenodd" d="M500 250a250 250 0 1 1-500 0 250 250 0 1 1 500 0z" sodipodi:type="arc" sodipodi:cx="29" sodipodi:cy="110" sodipodi:rx="53" sodipodi:ry="50"/><g fill-rule="evenodd"><path fill="#fff" d="M473 250a223 223 0 1 1-446 0 223 223 0 1 1 446 0z" sodipodi:ry="50" sodipodi:rx="53" sodipodi:cy="110" sodipodi:cx="29" sodipodi:type="arc"/><g><path fill="#008356" d="M473 250c0 123.1-99.9 223-223 223S27 373.1 27 250c104 0 331.73 0 446 0z" sodipodi:nodetypes="cscc"/><g><path fill="url(#b)" d="M286 470.88L444 264.5 270 471" sodipodi:nodetypes="ccc"/><path fill="url(#c)" d="M176.13 455.37l261.3-197.1-272.35 190.1" sodipodi:nodetypes="ccc"/><path fill="url(#d)" d="M91.9 405.9l335.78-145.63-345.06 136.4" sodipodi:nodetypes="ccc"/><path fill="url(#e)" d="M46.93 331.92l379.3-74.54L39.73 321" sodipodi:nodetypes="ccc"/></g></g></g><path fill="none" stroke="#fff" stroke-width="3.232" stroke-dashoffset="10.5" d="M82 110a53 50 0 1 1-106 0 53 50 0 1 1 106 0z" sodipodi:cx="29" transform="matrix(4.208 0 0 4.46 127.981 -240.6)" sodipodi:ry="50" sodipodi:rx="53" stroke-linejoin="round" sodipodi:cy="110" sodipodi:type="arc"/></g><g fill-rule="evenodd"><g fill="#008356"><path d="M121 129h22.5v71.86s.06 6.84 6.88 6.84c6.8 0 7.8-6.78 7.8-6.78v-71.86h21.94v71.92s.08 24.02-29.3 24.02c-29.22 0-29.8-23.98-29.8-23.98L121 129z" sodipodi:nodetypes="ccczcccczcc"/><path d="M223.62 158.76h20.33s1.77-29.76-28.1-29.76c-8.13 0-16.22 3.52-20.5 8.16-4.6 5.03-6.9 10.05-6.9 18.68 0 6.76.7 17 18.2 26.84 10.7 6.02 16.97 10.5 16.97 16.86 0 6.36-3.53 8.6-8.48 8.6-6.64 0-7.47-7.08-7.47-7.9 0-.96-.13-7.93-.13-7.93H186.5s-3.9 32.7 28.1 32.7c31.14 0 29.35-23.9 29.35-28.9 0-16-7.78-21.27-20.15-28.22-10.15-5.7-15.2-9.12-15.2-14.8 0-5.67 3.84-7.22 6.9-7.22 8.27 0 8.18 7.75 8.18 8.56 0 .72.12 4.52-.06 4.34z" sodipodi:nodetypes="ccsssssssccssssssc"/><path d="M253.32 129s22.45 0 30.94 0c8.48 0 26.7 2.92 26.7 21 0 22.44 0 30.15 0 54.2 0 13.45-12.08 20.8-24.94 20.8-10.6 0-32.7 0-32.7 0v-96zm22.12 17.62s5.22 0 7.2 0c3.98 0 6.2 1.85 6.2 13.28 0 14.22 0 19.1 0 34.3 0 8.53-.3 13.18-5.8 13.18-2.47 0-7.6 0-7.6 0v-60.76z"/><path d="M339.5 225h-21.38l20.25-96h25.75l20.75 95.74h-22.62l-2.63-17.56H343L339.5 225zm5.88-34.86h11.75l-5.5-43.32-6.25 43.32z"/></g><g fill="#fff"><path d="M254.9 349.12h-16.05l15.2-72h19.35l15.58 71.8h-17l-1.96-13.16h-12.5l-2.62 13.36zm4.42-26.15h8.82L264 290.5l-4.68 32.47z"/><path d="M104.03 277.12h8.5c9.93 0 17.93 7.9 17.93 17.7v36.6c0 9.8-8 17.7-17.93 17.7h-8.5c-9.94 0-17.94-7.9-17.94-17.7v-36.6c0-9.8 8-17.7 17.93-17.7zm4.25 12.03c3.13 0 5.65 2.6 5.65 5.84v36.25c0 3.24-2.52 5.84-5.65 5.84-3.14 0-5.66-2.6-5.66-5.85V295c0-3.25 2.52-5.85 5.66-5.85z"/><path d="M154.86 320.72v28.4h-16.8v-72s15.9 0 26 0c10.07 0 18.37 4.33 18.37 19.54 0 15.2-7.6 14.74-7.6 16.55 0 2.6 7.43-2.05 7.43 18.37 0 16.42 2.47 14.84 2.47 16.15 0 1.3-.1 1.36-.1 1.36h-19s0-14.6 0-20.5c0-6.6-3.85-7.86-10.77-7.86zm-.27-13.75s0-13.63 0-16.9c3.64 0 11.04-1.42 11.04 8.3 0 9.6-5.24 8.6-11.05 8.6z"/><path d="M217.44 322.3h-5.84v-11.95h22.45v37.56H222.2v-6.22s-3.17 7.44-14.84 7.44-18.2-7.96-18.2-17.48 0-29.6 0-38.77c0-9.17 10.07-15.75 22.26-15.75 12.2 0 21.97 6.75 21.97 15.4 0 8.66-.05 9.87-.05 9.87h-16.27s0-4.86 0-7.97c0-3.12-3.53-5.37-5.48-5.37-1.94 0-6.1 1.4-6.1 5.97 0 4.6 0 30.38 0 34.53 0 4.16 1.68 7.1 5.75 7.1 4.06 0 6.36-3.46 6.36-6.58 0-3.1 0-8.3-.16-7.8z" sodipodi:nodetypes="cccccccsssssccssssssc"/><path d="M309 312.6v36.34h-15.55v-71.82h17.32l12.2 39.74V277.3h15.38v71.82H320.5L309 312.6z"/><path d="M346.48 277.12h16.27v72h-16.27v-72z"/><path d="M399.16 302.74h16.27s0-4.33 0-10.56-6.02-15.06-23.52-15.06-20.67 12.3-20.67 17.83c0 5.54 0 29.07 0 35.82s3 18.35 21.2 18.35c18.22 0 23.88-11.42 23.88-15.58 0-4.15 0-12.63 0-12.63h-16.96s0 7.6 0 10.57c0 2.7-2.63 5.2-5.66 5.2-2.93 0-5.66-1.74-5.66-5.2s0-33.23 0-36.52c0-3.3 1.6-4.93 5.66-4.93 3.5 0 5.57 3.1 5.57 5.45 0 2.33.1 7.44-.1 7.27z" sodipodi:nodetypes="ccssssssccszsszzc"/></g></g></g></svg>
